!!!ONB: MCCC : IJH0463_01 : Extracted Monophonic Melody
!!!COM: Haydn, Joseph
!!!OPR: String Quartet in G major
!!!OMV: 1
!!!SCT: Hob.III:58 ; Op.54 No.1
!!!ODT: 1788///
**kern
*thru
*k[f#]
*G:
*clefG
*M4/4
2.gg
16ff#
16gg
16bb
16gg
=1
8dd
8dd
8dd
8dd
8dd
8dd
8dd
8dd
=2
2ddd[
16ddd]
16ccc#
16ddd
16ccc#
16ddd
16bb
16ccc
16aa
=3
4gg
8r
8g
8a-
8a
8b-
8b
=4
16cc
16dd
16cc
16b
16cc
16ee
16dd
16cc
4b
4r
=5
16a
16g#
16a
16g#
16a
16cc
16b
16a
4g
4r
=6
2a[
16a]
16b-
16b
16cc
16cc#
16dd
16ee
16dd
=7
16cc
16b
16a
16g
16f#
16g
16a
16g
16a
16b-
16b
16cc
16cc#
16dd
16ee
16dd
=8
16cc
16b
16a
16g
16f#
16g
16a
16g
16a
16b-
16b
16cc
16cc#
16dd
16ee
16dd
=9
16cc
16b
16a
16g
16f#
16g
16f#
16g
8gg
8gg
8gg
8gg
=10
8ff#
8ee
8ee
8ee
16ee
16ff#
16gg
16gg#
16aa
16bb
16ccc
16aa
=11
4gg
8r
8ddd
8ddd
8ddd
16ddd
16ccc
16bb
16aa
=12
4gg
8r
8gg
8gg
8gg
8gg
8gg
=13
8ff#
8ee
8ee
8ee
16ee
16ff#
16gg
16gg#
16aa
16bb
16ccc
16aa
=14
4gg
8r
8ddd
8ddd
8ddd
16ddd
16ccc
16bb
16aa
=15
4gg
8r
8d
8d
8d
16d
16c
16B
16A
=16
2G
4A
4B
=17
4c
2e
4d
=18
2g
4a
4b
=19
4cc
2ee-
4dd
=20
2cc#[
16cc#]
16dd
16cc#
16dd
16cc#
16dd
16ee
16cc#
=21
4dd
16cc#
16dd
16ee
16cc#
8dd
8dd
16cc#
16dd
16ee
16cc#
=22
8dd
8r
8dd
8r
8dd
4.r
=23
2.gg
16ff#
16gg
16bb
16gg
=24
8dd
8dd
8dd
8dd
8dd
8dd
8dd
8dd
=25
8cc#
8eee
4eee[
16eee]
16ccc#
16ddd
16bb
16ccc#
16aa
16bb
16gg
=26
8ff#
8aa
8aa
8aa
2aa[
=27
16aa]
16bb
16ccc#
16ddd
8aa
8aa
2aa[
=28
16aa]
16bb
16ccc#
16ddd
8aa
8aa
2aa[
=29
8aa]
8gg#
8gg#
8gg#
8aa
8gg#
8gg#
8gg#
=30
8bb
8aa
8aa
8aa
8bb
8aa
8aa
8aa
=31
16aa
16ff#
16ddd
16ccc#
16ddd
16aa
16fff#
16eee
16ddd
16ccc#
16bb
16aa
16gg
16ff#
16ee
16dd
=32
4cc#
2.r
=33
16aa
16ff#
16ddd
16ccc#
16ddd
16aa
16fff#
16eee
16ddd
16ccc#
16bb
16aa
16gg
16ff#
16ee
16dd
=34
4cc#
2.r
=35
16aa
16ff#
16ddd
16ccc#
16ddd
16aa
16fff#
16eee
16ddd
16ccc#
16bb
16aa
16gg
16ff#
16ee
16dd
=36
2cc#
4cc
4b
=37
16a
16b-
16b
16cc
16cc#
16dd
16ee
16ff
16ff#
16gg
16gg#
16aa
16aa#
16bb
16gg
16ee
=38
4..dd
16a
2ee
=39
4dd
8r
8dd
16cc#
16r
8b
16a
16r
8g#
=40
8b
8a
16a
16r
8g
16f#
16r
8e
16d
16r
8c#
=41
8e
8d
16d
16r
8e
16g
16r
8f#
16a
16r
8g
=42
4.b
8ee
4.cc#
16b
16cc#
=43
4dd
8r
8aa
8aa
8aa
16aa
16gg
16ff#
16ee
=44
4dd
8r
8a
8a
8a
16a
16g
16f#
16e
=45
4d
8r
8f#
8f#
8f#
16f#
16g
16a
16b
=46
4.cc
8cc#
8dd
8dd#
8ee
8ff#
=47
2.gg
16ff#
16gg
16bb-
16gg
=48
8dd
8dd
8dd
8dd
8dd
8dd
8dd
8dd
=49
2ddd[
16ddd]
16ccc#
16ddd
16ccc#
16ddd
16bb-
16ccc
16ddd
=50
4eee-
8r
8bb-
8bb-
8bb-
16bb-
16aa-
16gg
16ff
=51
4ee-
8r
8b-
8b-
8b-
16b-
16a-
16g
16f
=52
2e-
4f
4g
=53
4a-
2cc
4b-
=54
2ee-
4ff
4gg
=55
4aa-
2ccc
4bb-
=56
1aa[
=57
4aa]
2ccc
4bb-
=58
4aa
2aa
4gg
=59
4..ff#
16gg
16ff#
16gg
16ff#
16gg
16ff#
16gg
16aa
16ff#
=60
4gg
8r
8ddd
8ddd
8ddd
16ddd
16ccc
16bb-
16aa
=61
4gg
8r
8dd
8dd
8dd
16dd
16cc
16b-
16a
=62
4g
8r
8d
8d
8d
16d
16c
16B
16A
=63
2G#
2g#
=64
4.a
8cc
8cc
8cc
16b
16a
16g#
16a
=65
2e
4f#
4g#
=66
4a
2cc
4b
=67
2ee
4dd#
4dd
=68
4cc#
2cc
4b
=69
4r
2cc
4b
=70
4r
2dd#
4ee
=71
4r
2cc#
4dd
=72
4r
2b
4dd
=73
2.cc
16b
16cc
16ee
16cc
=74
8g
8g
8g
8g
8g
8g
8g
8g
=75
2.gg
16ff#
16gg
16bb
16gg
=76
8dd
8dd
8dd
8dd
8dd
8dd
8dd
8dd
=77
2.aa
16gg#
16aa
16ccc
16aa
=78
2gg
4.ee
16dd#
16ee
=79
4dd#
8r
8b
8b
8b
16b
16a
16g
16f#
=80
4e
8r
8ee
8ee
8ee
16ee
16dd
16cc
16b
=81
4a
8r
8aa
8aa
8aa
16aa
16gg
16ff#
16ee
=82
4dd
8r
8ddd
8ddd
8ddd
16ddd
16ccc
16bb
16aa
=83
8gg
8r
16eee
16ddd
16ccc
16bb
8aa
8r
16ccc
16bb
16aa
16gg
=84
8ff#
8r
16ccc
16bb
16aa
16gg
8ff#
8r
16ccc
16bb
16aa
16gg
=85
2ff#[
16ff#]
16gg
16ff#
16gg
16ff#
16gg
16aa
16ff#
=86
2.gg
16ff#
16gg
16bb
16gg
=87
8dd
8dd
8dd
8dd
8dd
8dd
8dd
8dd
=88
2ddd[
16ddd]
16ccc#
16ddd
16ccc#
16ddd
16bb
16ccc
16aa
=89
4gg
8r
8g
8a-
8a
8b-
8b
=90
16cc
16dd
16cc
16b
16cc
16ee
16dd
16cc
4b
4r
=91
16a
16g#
16a
16g#
16a
16cc
16b
16a
4g
4r
=92
2a[
16a]
16b-
16b
16cc
16cc#
16dd
16ee
16dd
=93
16cc
16b
16a
16g
16f#
16g
16a
16g
16a
16b-
16b
16cc
16cc#
16dd
16ee
16dd
=94
16cc
16b
16a
16g
16f#
16g
16f#
16g
16b
16cc
16dd
16ee
16ff
16gg
16aa
16gg
=95
16ff
16ee
16dd
16cc
16b
16cc
16b
16cc
16cc#
16dd
16ee
16ff#
16gg
16aa
16bb
16aa
=96
16gg
16ff#
16ee
16dd
16cc#
16dd
16cc#
16dd
8ccc
8r
8aa
8r
=97
16ff#
16gg
16aa
16bb
16ccc
16ddd
16eee
16ddd
16ccc
16bb
16aa
16gg
8ff#
8r
=98
16ff#
16gg
16aa
16bb
16ccc
16ddd
16eee
16ddd
16ccc
16bb
16aa
16gg
8ff#
8r
=99
16f#
16g
16a
16b
16cc
16dd
16ee
16dd
16cc
16b
16a
16g
16f#
16e
16d
16c
=100
2.B-
8c
8d
=101
2e-
2e
=102
16d
16A
16f#
16e
16f#
16d
16a
16g
16a
16d
16cc
16b
16cc
16a
16ff#
16gg
=103
16ff#
16dd
16aa
16gg
16aa
16ff#
16ccc
16bb
16ccc
16bb
16aa
16gg
16ff#
16ee
16dd
16cc
=104
16b
16dd
16cc#
16dd
16cc#
16dd
16cc#
16dd
16dd#
16ee
16dd#
16ee
16dd
16b
16cc
16a
=105
4..g
16d
2a
=106
4g
8r
8gg
16ff#
16r
8ee
16dd
16r
8cc#
=107
8ee
8dd
16dd
16r
8cc
16b
16r
8a
16g
16r
8f#
=108
8a
8g
16g
16r
8a
16cc
16r
8b
16dd
16r
8cc
=109
4..ee
16aa
4..ff#
32ee
32ff#
=110
4gg
4.r
8aa
8aa
8aa
=111
16aa
16gg
16ff#
16ee
8dd
4r
8dd
8dd
8dd
=112
16dd
16cc
16b
16a
8g
8a
16cc
16r
8b
16dd
16r
8cc
=113
16ee
16r
8dd
16ff
16r
8dd#
16ee
16r
8ff#
16gg
16r
8aa
=114
2ccc
2bb
=115
16aa
16gg#
16aa
16gg#
16aa
16bb
16ccc
16bb
8aa
4.r
=116
16aa
16gg#
16aa
16gg#
16aa
16bb
16ccc
16bb
8aa
8ddd
8ddd
8ddd
=117
1ddd
=118
2ddd[
16ddd]
16ccc#
16ddd]
16ccc#
16ddd
16eee
16ddd
16ccc
=119
4bb
8r
8bb
16ccc
16r
8bb
16eee
16r
8ddd
=120
4ccc#
4r
4ccc
4r
=121
4r
2bb
4aa
=122
2ccc
2bb
=123
4r
2aa
8bb
8ccc
=124
4gg
4r
4aa
4r
=125
2.gg
16ff#
16gg
16bb
16gg
=126
8dd
8dd
8dd
8dd
8dd
8dd
8dd
8dd
=127
2ddd[
16ddd]
16ccc#
16ddd
16ccc#
16ddd
16bb
16ccc
16aa
=128
4gg
8r
8dd
8dd
8dd
16dd
16cc
16b
16a
=129
4g
4r
4ff#
4r
=130
4gg
2.r
==
*-
